src/assets/img/icons/github-outline.svg

<svg width="20" height="21" viewBox="0 0 20 21" fill="none" xmlns="http://www.w3.org/2000/svg">
<path d="M13.3337 19.3334V16.1084C13.3649 15.711 13.3112 15.3115 13.1762 14.9365C13.0411 14.5615 12.8278 14.2195 12.5503 13.9334C15.167 13.6417 17.917 12.65 17.917 8.10003C17.9168 6.93655 17.4692 5.8177 16.667 4.97503C17.0469 3.95712 17.02 2.83199 16.592 1.83336C16.592 1.83336 15.6087 1.5417 13.3337 3.0667C11.4237 2.54905 9.41032 2.54905 7.50033 3.0667C5.22533 1.5417 4.24199 1.83336 4.24199 1.83336C3.81397 2.83199 3.78711 3.95712 4.16699 4.97503C3.35876 5.82395 2.91076 6.95292 2.91699 8.12503C2.91699 12.6417 5.66699 13.6334 8.28366 13.9584C8.00949 14.2417 7.79804 14.5795 7.66308 14.95C7.52812 15.3204 7.47267 15.7151 7.50033 16.1084V19.3334M7.50033 16.8334C3.33366 18.0834 3.33366 14.75 1.66699 14.3334L7.50033 16.8334Z" stroke="#17233A" stroke-width="2" stroke-linecap="round" stroke-linejoin="round"/>
</svg>

<svg xmlns="http://www.w3.org/2000/svg" width="20" height="21" fill="none">
  <path stroke="#17233A" stroke-linecap="round" stroke-linejoin="round" stroke-width="2" d="M13.334 19.333v-3.225a2.8 2.8 0 0 0-.784-2.175c2.617-.291 5.367-1.283 5.367-5.833a4.53 4.53 0 0 0-1.25-3.125 4.22 4.22 0 0 0-.075-3.142s-.983-.291-3.258 1.234a11.15 11.15 0 0 0-5.834 0C5.225 1.542 4.242 1.833 4.242 1.833a4.22 4.22 0 0 0-.075 3.142 4.53 4.53 0 0 0-1.25 3.15c0 4.517 2.75 5.508 5.367 5.833a2.8 2.8 0 0 0-.784 2.15v3.225m0-2.5c-4.166 1.25-4.166-2.083-5.833-2.5z"/>
</svg>
